packages/foundations/assets/icons/functional/images/maps/navigation_to_left_28.svg

<svg width="28" height="28" viewBox="0 0 28 28" fill="none" xmlns="http://www.w3.org/2000/svg">
<g clip-path="url(#clip0_2213_5383)">
<path fill-rule="evenodd" clip-rule="evenodd" d="M14.4375 9.53752C16.8537 9.53752 18.8125 11.4963 18.8125 13.9125V23.5375C18.8125 24.0208 19.2043 24.4125 19.6875 24.4125C20.1707 24.4125 20.5625 24.0208 20.5625 23.5375V13.9125C20.5625 10.5298 17.8202 7.78752 14.4375 7.78752H10.4317L13.1262 5.09581C13.3004 4.92176 13.3875 4.70904 13.3875 4.45764C13.3875 3.99356 13.0101 3.58752 12.5166 3.58752C12.2844 3.58752 12.0522 3.67452 11.9071 3.84851L7.62945 8.12063C7.50146 8.26474 7.4375 8.46363 7.4375 8.66252C7.4375 8.86554 7.52456 9.09758 7.69877 9.27166L12.0821 13.6515C12.2272 13.7965 12.4594 13.9125 12.6916 13.9125C13.1851 13.9125 13.5625 13.5065 13.5625 13.0424C13.5625 12.8104 13.4754 12.5783 13.3012 12.4042L10.4317 9.53752H14.4375Z" fill="#1A1C1F"/>
</g>
<defs>
<clipPath id="clip0_2213_5383">
<rect width="28" height="28" fill="white"/>
</clipPath>
</defs>
</svg>

<svg xmlns="http://www.w3.org/2000/svg" width="28" height="28" fill="none"><g clip-path="url(#a)"><path fill="#1A1C1F" fill-rule="evenodd" d="M14.438 9.538a4.375 4.375 0 0 1 4.374 4.374v9.626a.875.875 0 1 0 1.75 0v-9.625a6.125 6.125 0 0 0-6.125-6.125h-4.005l2.694-2.692a.87.87 0 0 0 .261-.638.873.873 0 0 0-.87-.87.79.79 0 0 0-.61.26L7.63 8.122a.82.82 0 0 0-.191.542c0 .203.087.435.26.609l4.384 4.38a.9.9 0 0 0 .61.26c.493 0 .87-.405.87-.87a.9.9 0 0 0-.26-.638l-2.87-2.866z" clip-rule="evenodd"/></g><defs><clipPath id="a"><path fill="#fff" d="M0 0h28v28H0z"/></clipPath></defs></svg>
